X:1
T:Title
%%score { ( 1 3 ) | ( 2 4 ) }
L:1/8
M:4/4
K:F
V:1 treble nm="Grand Piano"
V:3 treble 
V:2 bass 
V:4 bass 
V:1
 z4 z2[Q:1/4=100] FG | A2 F2 F2 BA | [FA]2 [EG]2 [EG]2 [EG][EA] | [EB]2 [CE]2 [CF]2 [EG]2 | %4
[M:3/4] [FA]6 |[M:1/4] [EG][FA] |[M:4/4] [GB]2 [FA]2 [EG]2 [Ed][Ed] |[M:9/8] c2 A- A F2- FF[FG] | %8
[M:4/4] [FA]2 [FA]2 [DB] A2 [B,EG] |[M:3/4] F6 |[M:1/4] cc |[M:4/4] [Ec]3 [EG] [EG]2 [Ec]2 | %12
 c6 z2 | A3 F B2 F2 |[M:3/4] A6 |[M:1/4] [EG][FA] |[M:4/4] [GB]2 [FA]2 [EG]2 [Ed][Ed] | %17
[M:9/8] c2 A- A F2- FF[FG] |[M:4/4] [FA]2 [FA]2 F- [FA]2 [B,EG] |[M:3/4] [A,CF]6 |] %20
V:2
 z4 z2 [F,A,C][F,B,C] | [F,CF]2 [F,A,C]2 [F,A,C]2 [G,CE][F,CF] | %2
 [C,C]2 [C,B,]2 [C,B,]2 [C,B,][C,A,] | [C,G,]2 [C,B,]2 [C,A,]2 [C,C]2 |[M:3/4] [F,C]6 | %5
[M:1/4] [C,C][C,C] |[M:4/4] [C,C]2 [C,C]2 [C,C]2 [C,B,][C,B,] | %7
[M:9/8] [F,A,F]2 [F,CF]- [F,CF] [D,=B,]2- [D,B,][D,B,][^C,B,] |[M:4/4] [C,C]2 [C,C]2 z C2 C, | %9
[M:3/4] [F,A,]6 |[M:1/4] [F,A,F][F,A,F] |[M:4/4] [C,B,]3 [C,B,] [C,B,]2 [C,B,]2 | %12
 [F,A,F]2 [G,B,]2 [A,C]2 [F,CF][F,CF] | [F,CF]3 [F,A,] [F,DF]2 [F,^C]2 |[M:3/4] C2 z2 z2 | %15
[M:1/4] [C,C][C,C] |[M:4/4] [C,C]2 [C,C]2 [C,C]2 [C,B,][C,B,] | %17
[M:9/8] [F,A,F]2 [F,CF]- [F,CF] [D,=B,]2- [D,B,][D,B,][^C,B,] |[M:4/4] [C,C]2 [C,C]2 z C2 C, | %19
[M:3/4] F,6 |] %20
V:3
 x8 | x8 | x8 | x8 |[M:3/4] x6 |[M:1/4] x2 |[M:4/4] x8 |[M:9/8] x9 |[M:4/4] z4 F4 |[M:3/4] x6 | %10
[M:1/4] x2 |[M:4/4] x8 | z2 E2 F2 AA | x8 |[M:3/4] z2 D2 C2 |[M:1/4] x2 |[M:4/4] x8 |[M:9/8] x9 | %18
[M:4/4] z4 .[DB]2 z2 |[M:3/4] x6 |] %20
V:4
 x8 | x8 | x8 | x8 |[M:3/4] x6 |[M:1/4] x2 |[M:4/4] x8 |[M:9/8] x9 |[M:4/4] z4 C,4 |[M:3/4] x6 | %10
[M:1/4] x2 |[M:4/4] x8 | x8 | x8 |[M:3/4] [F,F]6 |[M:1/4] x2 |[M:4/4] x8 |[M:9/8] x9 | %18
[M:4/4] z4 C,4 |[M:3/4] x6 |] %20

